common/src/main/resources/files/plugins/datagrip/athenaFileType.svg

<!--
  - The MIT License (MIT)
  -
  - Copyright (c) 2015-2024 Elior "Mallowigi" Boukhobza
  -
  - Permission is hereby granted, free of charge, to any person obtaining a copy
  - of this software and associated documentation files (the "Software"), to deal
  - in the Software without restriction, including without limitation the rights
  - to use, copy, modify, merge, publish, distribute, sublicense, and/or sell
  - copies of the Software, and to permit persons to whom the Software is
  - furnished to do so, subject to the following conditions:
  -
  - The above copyright notice and this permission notice shall be included in all
  - copies or substantial portions of the Software.
  -
  - THE SOFTWARE IS PROVIDED "AS IS", WITHOUT WARRANTY OF ANY KIND, EXPRESS OR
  - IMPLIED, INCLUDING BUT NOT LIMITED TO THE WARRANTIES OF MERCHANTABILITY,
  - FITNESS FOR A PARTICULAR PURPOSE AND NONINFRINGEMENT. IN NO EVENT SHALL THE
  - AUTHORS OR COPYRIGHT HOLDERS BE LIABLE FOR ANY CLAIM, DAMAGES OR OTHER
  - LIABILITY, WHETHER IN AN ACTION OF CONTRACT, TORT OR OTHERWISE, ARISING FROM,
  - OUT OF OR IN CONNECTION WITH THE SOFTWARE OR THE USE OR OTHER DEALINGS IN THE
  - SOFTWARE.
  -->
<svg data-big="true" width="16px" height="16px" viewBox="0 0 16 16" fill="#FB8835" xmlns="http://www.w3.org/2000/svg">
  <path d="M8 11.7V15.1L1 11.6V9.60002L8 11.7Z"/>
  <path d="M8 11.7V15.1L15 11.6V9.60001L8 11.7Z" fill="#FB8835"/>
  <path d="M1.00781 6.65623V8.6367L1.90114 8.81087V6.65623H1.00781Z" fill="none"/>
  <path d="M2.44141 6.65623L2.44141 8.75389L1.90114 8.81087V6.65623H2.44141Z" fill="#FB8835"/>
  <path d="M2.43576 8.91511L3.55909 9.13413V4.13782L2.43576 4.37159V8.91511Z" fill="none"/>
  <path d="M4.69041 8.99362L3.55908 9.13413V4.13782L4.69041 4.27505L4.69041 8.99362Z" fill="#FB8835"/>
  <path d="M4.27344 9.27341L5.88551 9.58771V5.14842L4.27344 5.31639V9.27341Z" fill="none"/>
  <path d="M6.91405 9.41014L5.8855 9.58771V5.14842L6.91405 5.23436V9.41014Z" fill="#FB8835"/>
  <path d="M15.0077 1.67578V8.63672L14.1177 8.80986V1.24097L15.0077 1.67578Z" fill="#FB8835"/>
  <path d="M13.1289 1.46875V8.66386L14.1178 8.80986V1.24097L13.1289 1.46875Z" fill="none"/>
  <path d="M13.6285 8.90506L12.4232 9.13954V1.64612L13.6285 2.12193V8.90506Z" fill="#FB8835"/>
  <path d="M11.3281 9.00527L12.4232 9.13954V1.64612L11.3281 1.91408V9.00527Z" fill="none"/>
  <path d="M11.7434 9.27177L10.095 9.59244V3.67969L11.7434 4.01841V9.27177Z" fill="#FB8835"/>
  <path d="M9.09427 9.42121L10.095 9.59244V3.67969L9.09427 3.82248V9.42121Z" fill="none"/>
  <path d="M8.00001 1.54463V9.99998L6.91193 9.78783V1.91117L8.00001 1.54463Z" fill="none"/>
  <path d="M8.00002 1.54163V10L9.10848 9.78436V1.89052L8.00002 1.54163Z" fill="#FB8835"/>
</svg>

<svg xmlns="http://www.w3.org/2000/svg" width="16" height="16" fill="#FB8835" data-big="true"><path d="M8 11.7v3.4l-7-3.5v-2zM8 11.7v3.4l7-3.5v-2z"/><path fill="none" d="M1.008 6.656v1.98l.893.175V6.656z"/><path d="M2.441 6.656v2.098l-.54.057V6.656z"/><path fill="none" d="m2.436 8.915 1.123.22V4.137l-1.123.234z"/><path d="m4.69 8.994-1.13.14V4.138l1.13.137z"/><path fill="none" d="m4.273 9.273 1.613.315v-4.44l-1.613.168z"/><path d="m6.914 9.41-1.028.178v-4.44l1.028.086zM15.008 1.676v6.96l-.89.174V1.24z"/><path fill="none" d="M13.129 1.469v7.195l.989.146V1.24z"/><path d="m13.629 8.905-1.206.235V1.646l1.206.476z"/><path fill="none" d="m11.328 9.005 1.095.135V1.646l-1.095.268z"/><path d="m11.743 9.272-1.648.32V3.68l1.648.338z"/><path fill="none" d="m9.094 9.421 1.001.171V3.68l-1 .142zM8 1.545V10l-1.088-.212V1.91z"/><path d="M8 1.542V10l1.108-.216V1.891z"/></svg>
